X: 74
T:Wee Willie's Strathspey. WI.074
M:C
L:1/8
Q:140
C:"composed by the author's son only 9 yrs of age"
S:Wm Irwin, Folio MS, c1850. AGG's Transcription
R:Strathspey
O:England
A:Lake District
Z:vmp.Chris Partington.2005
K:G
"Slowish"D<GG>A B<G G2|E<AA>G {G}F2(ED)|\
D<GG>A B<G G2|E>A (G/F/)(E/D/) {F}G2G,2:|!
D<GG>c Bc/d/ d>B|c>AB>G {G}F2ED|\
D<GG>c B(c/d/) (dg)|B>G B/A/G/F/ G2GD|!
GBde/f/ .g.f.e.d|cBAG {G}F2ED|\
(3GBG (3AcA (3Bcd (3efg|{a}(3gfe (3def g2 (3gab |]
